X: 156
T: Lady Home
T: Jig, C
L: 1/16
M: 6/8
K: C
|: c4g2 g2e2g2| g2e2a2 g4e2| c2e2g2 g2e2c2| d2c2d2 f4d2| c4g2 g2e2g2| g2e2a2 g4e2| f2g2a2 g2f2e2| d2c2d2 f4d2:| 
|: c2d2c2 c2G2E2| c2B2c2 e4d2| c2d2c2 c2G2E2| D2E2D2 e4d2| c2d2c2 c2G2E2| C2E2G2 c2G2E2| F2d2F2 E2c2E2| D2E2D2 e4d2:| 
D: Carl MacKenzie, A Cape Breton Classic, CLM 1007
